X:1
T:Title
%%score { ( 1 3 ) | ( 2 4 ) }
L:1/8
Q:1/4=106
M:4/4
K:C
V:1 treble nm="Grand Piano"
V:3 treble 
V:2 bass 
V:4 bass 
V:1
 [EG]3 [EG] [FA][EG] [G,CE]>[G,DF] | E4- [Ec]4 | B2 B2 B2 c2 | d3 c c2 B2 | %4
w: John~R.~Sweney * * * * *||||
 [Ec]2 [Ec]2 [Ec]2 [Fd]2 | [Ge]3 [Fd] [Fd]2 z C | A3 [GB] [Bd]>[CAc] [CGB]>[CFA] | %7
w: |||
 E4- [Ec]2 [CGc][Ad] | e2 c2 [Fd]2 [DB]2 |[M:3/4] [Ec]6 |[M:1/4] C>E |[M:4/4] G6 z2 | c6 z2 | %13
w: ||||||
 z4 d2 z2 | [EG]6 [EG]>[EG] | G2 F2 B3 A | E2- [Ec]4 [Ec]>[Ec] | d2 G2 [Gc]3 [Gd] | %18
w: |||||
 [Ge]6 [Ge]>[Ge] | [^Ge]3 [Gd] [Ac][GB] [Ac]>A | E4- [Ec]2 [CGc][Ad] | e2 c2 [Fd]2 [DB]2 | %22
w: ||||
[M:3/4] [Ec]6 |] %23
w: |
V:2
 [C,C]3 [C,C] [C,C][C,C] C,>C, | z4 G,4 | [G,D]2 [G,D]2 [G,D]2 [G,E]2 | %3
 [G,B,F]3[K:bass] [G,E] [G,E]2 [G,D]2 | [C,G,]2 [C,G,]2 [C,G,]2 [C,G,]2 | %5
 [C,C]3 [C,G,] [C,G,]2 .[C,G,]2 | [F,CF]3 [F,C] [F,C]>F, F,>F, | z4 G,2 E,[F,C] | %8
 [G,CG]2 [G,E]2[K:bass] [G,,G,]2 [G,,G,]2 |[M:3/4] [C,G,]6 |[M:1/4] z2 | %11
[M:4/4] z2 [C,C]>[C,C] .[C,C]2 z2 | z z/ [C,G,]/ [C,G,]>[C,G,] [C,G,]2 [C,G,]>[C,G,] | %13
 [C,C]2 [E,C]2 [F,C]2 [F,C]2 | [C,C]6 [C,C]>[C,C] | [G,B,D]2 [G,B,D]2 [G,DF]3 [G,DF] | %16
 z2 G,4 [C,G,]>[C,G,] | [G,B,G]2 [F,B,]2 [E,C]3 [D,B,] | [C,C]6 [C,C]>[C,C] | %19
 [E,B,]3 [E,B,] [F,A,]2 z z/ F/ | z4 G,2 E,[F,C] | [G,CG]2 [G,E]2[K:bass] [G,,G,]2 [G,,G,]2 | %22
[M:3/4] [C,G,]6 |] %23
V:3
 x8 | [CG]4 z4 | x8 | x8 | x8 | z4 z2 [Ec]2 | x8 | [CG]4 z4 | x8 |[M:3/4] x6 |[M:1/4] x2 | %11
[M:4/4] z2 E>E E>G E>G | z z/ E/ E>E E2 [Ec]>[Fd] | [Ge]2 [Gc]2 A->[Ac] [GB]>[FA] | x8 | x8 | %16
 [CG]2 z2 z4 | x8 | x8 | x8 | [CG]4 z4 | x8 |[M:3/4] x6 |] %23
V:4
 x8 | C,8 | x8 | x3[K:bass] x5 | x8 | x8 | x8 | C,6 z2 | x4[K:bass] x4 |[M:3/4] x6 |[M:1/4] x2 | %11
[M:4/4] x8 | x8 | x8 | x8 | x8 | C,6 z2 | x8 | x8 | z4 z2 [F,C]2 | C,6 z2 | x4[K:bass] x4 | %22
[M:3/4] x6 |] %23

